docs/.gitbook/assets/icon-pin-disabled-16@dark.svg

<svg width="32" height="32" viewBox="0 0 16 16" fill="none" xmlns="http://www.w3.org/2000/svg">
<rect x="0" y="0" width="16" height="16" fill="#181c1f"/>
<path fill-rule="evenodd" clip-rule="evenodd" d="M2.26762 1.17574C2.58479 0.90932 3.05788 0.950458 3.3243 1.26762L4.22316 2.3377C5.25408 1.50175 6.56893 1.00002 8.00002 1.00002C11.3137 1.00002 14 3.68631 14 7.00002C14 8.668 13.0187 10.2849 11.9675 11.5572L13.8243 13.7676C14.0907 14.0848 14.0496 14.5579 13.7324 14.8243C13.4152 15.0907 12.9422 15.0496 12.6757 14.7324L2.17574 2.23241C1.90932 1.91525 1.95046 1.44216 2.26762 1.17574ZM10.9846 10.387C11.8714 9.26502 12.5 8.07389 12.5 7.00002C12.5 4.51474 10.4853 2.50002 8.00002 2.50002C6.93587 2.50002 5.95877 2.86869 5.18811 3.48645L6.96213 5.59838C7.2469 5.38333 7.60169 5.25002 8.00002 5.25002C8.96652 5.25002 9.75002 6.03352 9.75002 7.00002C9.75002 7.49542 9.54381 7.92348 9.23062 8.23325C9.22052 8.24323 9.21022 8.25287 9.19971 8.26217L10.9846 10.387ZM2.75002 6.25002C3.16423 6.25002 3.50002 6.5858 3.50002 7.00002C3.50002 7.69271 3.76251 8.45037 4.21816 9.23149C4.67073 10.0073 5.28504 10.757 5.91753 11.4197C6.54773 12.0799 7.18061 12.6377 7.65713 13.031C7.89481 13.2272 8.09217 13.3813 8.22896 13.4855C8.29733 13.5376 8.35046 13.5771 8.38583 13.6032L8.4252 13.632L8.43427 13.6385L8.43595 13.6397L8.43605 13.6398L8.43615 13.6399C8.77304 13.8807 8.85103 14.349 8.61032 14.6859C8.36956 15.023 7.90115 15.1011 7.56409 14.8603L8.00002 14.25C7.56409 14.8603 7.56394 14.8602 7.56377 14.8601L7.56332 14.8598L7.56207 14.8589L7.55815 14.8561L7.54472 14.8463L7.49629 14.8109C7.45475 14.7803 7.39509 14.7359 7.3199 14.6786C7.16958 14.5641 6.95678 14.3979 6.70228 14.1878C6.19442 13.7686 5.5148 13.1702 4.8325 12.4554C4.15249 11.743 3.4543 10.899 2.9225 9.9873C2.39377 9.08091 2.00002 8.05732 2.00002 7.00002C2.00002 6.5858 2.3358 6.25002 2.75002 6.25002Z" fill="#fff"/>
</svg>

<svg xmlns="http://www.w3.org/2000/svg" width="32" height="32" fill="none" viewBox="0 0 16 16"><path fill="#181c1f" d="M0 0h16v16H0z"/><path fill="#fff" fill-rule="evenodd" d="M2.268 1.176a.75.75 0 0 1 1.056.092l.9 1.07A6 6 0 0 1 14 7c-.001 1.668-.982 3.285-2.033 4.557l1.856 2.21a.75.75 0 1 1-1.148.965l-10.5-12.5a.75.75 0 0 1 .092-1.056m8.717 9.211C11.87 9.265 12.5 8.074 12.5 7a4.5 4.5 0 0 0-7.312-3.514l1.774 2.112A1.7 1.7 0 0 1 8 5.25c.967 0 1.75.784 1.75 1.75a1.72 1.72 0 0 1-.55 1.262zM2.75 6.25A.75.75 0 0 1 3.5 7c0 .693.263 1.45.718 2.231.453.776 1.067 1.526 1.7 2.189a20.4 20.4 0 0 0 2.468 2.183l.04.029.008.007h.002a.75.75 0 0 1-.872 1.221L8 14.25l-.436.61-.002-.001-.004-.003-.013-.01-.049-.035-.176-.132a22 22 0 0 1-2.487-2.223c-.68-.713-1.379-1.557-1.91-2.469C2.393 9.081 2 8.057 2 7a.75.75 0 0 1 .75-.75" clip-rule="evenodd"/></svg>
